X:51.3
T: Kost ar c'hoad III
R:Breton
S: from Anna Pack, Dec 2022
L: 1/8
M:4/4
G:sax
P:soprano: 5x (don't play 1st time)
K:Em
|:"Am"c2B>A "Am"B>c "Am"A2|(3ABc "F"d>c "F"A>c "Em"B2:|
|:"Am"A2 e>e "Am"B>c "G"d2|(3cBc "F"A2 "F"c2 B>A|
"C"G2E2 "C"^F>G "D"A>G|A>c "Em"B>c "Am"A2A2:|

